src/images/mesh-icon/icon_daemonset.svg

<svg height="20" viewBox="0 0 20 20" width="20" xmlns="http://www.w3.org/2000/svg"><g fill="none" fill-rule="evenodd" stroke="#79879c" stroke-width="1.5"><path d="m8 2.5h4c.5522847 0 1 .44771525 1 1v1c0 .55228475-.4477153 1-1 1h-4c-.55228475 0-1-.44771525-1-1v-1c0-.55228475.44771525-1 1-1z"/><path d="m8 8.5h4c.5522847 0 1 .44771525 1 1v1c0 .5522847-.4477153 1-1 1h-4c-.55228475 0-1-.4477153-1-1v-1c0-.55228475.44771525-1 1-1z"/><path d="m8 14.5h4c.5522847 0 1 .4477153 1 1v1c0 .5522847-.4477153 1-1 1h-4c-.55228475 0-1-.4477153-1-1v-1c0-.5522847.44771525-1 1-1z"/><path d="m13.5 4c1.6568542 0 3 1.34314575 3 3s-1.3431458 3-3 3"/><path d="m3.5 10c1.65685425 0 3 1.3431458 3 3s-1.34314575 3-3 3" transform="matrix(-1 0 0 1 10 0)"/></g></svg>

<?xml version="1.0" encoding="UTF-8"?>
<svg width="20px" height="20px" viewBox="0 0 20 20" version="1.1" xmlns="http://www.w3.org/2000/svg" xmlns:xlink="http://www.w3.org/1999/xlink">
    <title>icon_daemonset</title>
    <g id="Dashboard" stroke="none" stroke-width="1" fill="none" fill-rule="evenodd">
        <g id="03-开发环境-创建环境-创建共享开发环境-第一步填充态-流量生成" transform="translate(-974.000000, -409.000000)" stroke="#79879C" stroke-width="1.5">
            <g id="创建共享开发环境" transform="translate(244.000000, 104.000000)">
                <g id="Right" transform="translate(420.000000, 0.000000)">
                    <g id="集群" transform="translate(0.000000, 126.000000)">
                        <g id="编组-17" transform="translate(24.000000, 64.000000)">
                            <g id="编组-14" transform="translate(16.000000, 64.000000)">
                                <g id="编组-7备份-27" transform="translate(269.000000, 12.000000)">
                                    <g id="编组-22" transform="translate(0.000000, 38.000000)">
                                        <g id="编组-21" transform="translate(1.000000, 1.000000)">
                                            <path d="M8,2.5 L12,2.5 C12.5522847,2.5 13,2.94771525 13,3.5 L13,4.5 C13,5.05228475 12.5522847,5.5 12,5.5 L8,5.5 C7.44771525,5.5 7,5.05228475 7,4.5 L7,3.5 C7,2.94771525 7.44771525,2.5 8,2.5 Z" id="矩形"></path>
                                            <path d="M8,8.5 L12,8.5 C12.5522847,8.5 13,8.94771525 13,9.5 L13,10.5 C13,11.0522847 12.5522847,11.5 12,11.5 L8,11.5 C7.44771525,11.5 7,11.0522847 7,10.5 L7,9.5 C7,8.94771525 7.44771525,8.5 8,8.5 Z" id="矩形备份-12"></path>
                                            <path d="M8,14.5 L12,14.5 C12.5522847,14.5 13,14.9477153 13,15.5 L13,16.5 C13,17.0522847 12.5522847,17.5 12,17.5 L8,17.5 C7.44771525,17.5 7,17.0522847 7,16.5 L7,15.5 C7,14.9477153 7.44771525,14.5 8,14.5 Z" id="矩形备份-13"></path>
                                            <path d="M13.5,4 C15.1568542,4 16.5,5.34314575 16.5,7 C16.5,8.65685425 15.1568542,10 13.5,10" id="路径"></path>
                                            <path d="M3.5,10 C5.15685425,10 6.5,11.3431458 6.5,13 C6.5,14.6568542 5.15685425,16 3.5,16" id="路径" transform="translate(5.000000, 13.000000) scale(-1, 1) translate(-5.000000, -13.000000) "></path>
                                        </g>
                                    </g>
                                </g>
                            </g>
                        </g>
                    </g>
                </g>
            </g>
        </g>
    </g>
</svg>
